-----BEGIN PGP MESSAGE-----

hQIMA1YGz9qBHZ0tARAAhqo8dkFLNOyW3qao5mM/fp70OECHSdwenwm5y2sz2sE2
mY/DPtpUL5QyOp18UvvOPJxhOwZ6t2QqbhfPPYTVTwm3EUlYOXaZBfNMPPXYBWIS
E1wY4aqKyD2GwozL6h+S/SgLyyXt6Bfyn3WXbT4EnYwJ4FoatViHuLU+S/WO9sb9
Y33P1KU5PCtzc2gu409VdVd9kAIjih9GIWtKKVLyaTsAmd3ZpQD5RC3v7r9uhOSE
1pN6WyGtfpWpPiZicbTBjZfPBTsjhx9pRxHK3/jo09eRjK2mU8MctHADjg2JZxeV
Wh2YIwv6aH67XQPGIiNFYkgkWfmAKedRFwawPGsnvDWeeqIdzBaV9V9TglmHbJGb
VKXdhnJmqLnWHz8okdw7aFISy/Kt51kGOARHJzeAC7u74cJNAEVx8L1huf4x5V+b
LNOXqYwIM9+2Xz47E6V55ShL3zvuWrAZ/aXU0IsjLPBu38Zqx+LswOE1sUnbFRt7
5IztVaxjvwXF8o7xHPnONtGTk1DNemhyVubtF2m4Powr2eWJVbHIzrCO4WlwpBiX
vPVW5LDqibnMj+3tS6Wqj3LaamnNKyszZWTe0PkQP1bXPqZomcuRh1nhdWW2iBcl
as+W+NX4Xeg8zVRWaqhr6MT7mbgvLbXqE+oXL+w35ll0RDZqi/jcCFxgD/LZ80mF
AgwDS9w+evuebRkBD/9RHEHxbO9v5vs99Bta6oELANHnXYT0D0Fd9/s2IQG26NRL
NFM/giRGYNXhpgpBDF+UkGxiwDHlkS3GuocxJE5i0RvvkUvSZi6uiYP74WQdxk7u
0GtPmI8EVpL2ZzkXG9guM79nJXndfp1p2/8cswYzQWB1m9WmInVvldZKJEk8rDPu
FEtqRyNbJAMiCmIa+DfhykCyQfkWuBgL+I4ywYoKPVuKPgHG9esJtTo7lGVKmjbq
kWI6CeLnYyjYYGi1NcpYwimGdcECMFbapGCDGtLb3qDwYuzR7RvoHEzV1XcP4Evu
9Og7hJtZYDpHPU24nbEc0KmzJBmV34pHSIipEsXJAen7CozMNrtBrV56Xau7NL1q
RWZXgM4rRI1rCvX6KY/CR8Fl2JjFyGXpMe8Y/lWl4Im+mM3DvmpchH2UHQaSue3y
+1haGstOHgSYZ5pBx9rMcXL/7pcyqSLT76h7f5fA1XQ1Qj9Tvsknbqy1Ikb2icF2
kJV+oAlC8j/yj2gBJqJneG+OeXfeipOivhkzii3sYvreIuX3dDHMnuh5/DXkdNj4
1gGyzKhfVkKfMLSBwtu30VuYUYwvR1NMvyKpLpdQg8SJM89AjJvaO3/i2kt3AaJF
hKtfoygQ7pmgMjnVpOgdPaQs4gXm+rvbC4vOpcDMf2fFWPp8ylraNapteNPQLIUC
DANYxDMdkigCwQEP/RHNU4K+WhJuMFwwbWvfihJO08h76qXBaRjGU5kQbjtl6Hud
5Sbkrg0TKYhFGPQqrAgMk5sT5XRYkODvz3/XD+hTMhI9jnM9384s1xWp5sXx+KJw
cctAPbi0itH7fTNpm9Ws3F2RxQtzZ3bkNyrZAzwVy7l9sPbFHGmRzLpMTKGsU26d
eUby+p8TEZsvUCGhMAlVamreUMLns0YwxW0tAED71aOmet4zGpTISZ0zonG53UQq
RXduvmbaiFSt0SwLnE46ACUdwx9bap1dNoV1/9En1UGvR3kZPPrM8JTAMtp05BEo
828lGeBfbDwQMibbQWVrGgOdfBVHUt9xK5aBV0dLqprD4+n2nRdRE+Ru7mOqf8+o
VPyq7j3JYrWC8ZuwU19w+G4qdABL+InyudOWdLq80sjIDQMi5Sevg1ts+59ydVOA
EhreT/VM52AMExX9pbX7Up/DWLPWuSyvR9NtnXJp4wKzuGBZqKjDM9sxm7oiPywY
YEA0/3EtTnEZKCxdbfBTF9Oy3TWXJMIDDw3pwJH0UGIERbbWDcR0varaTLBXMIqO
jPKyE2RJsGiE8lyi5/MVyGpCXiE1BTRqvRr1HMSIiUDPtZ3O8ZdBjspiFXHqpx/A
a0PzkYXBy2+eSW0CvHv4fa/iAhg/yh46qe6dEAWXGb/3Use1jIY7hPwHensQ1JMB
CQIQCpuLP5HlH447lCnhzNY58jYDLXTJnn8b1vltAWqz5zDNkB8RRIDRZW4acr1X
BmhnsanaFfiR/NyVFvdPH2MMwOur2ypTJljYRI+f7gzeveMs6uW72VjZCTDWhAsa
xeDQlW1AU5T5t8bSH209Is8FdcLHQX1955D5MxHKoMqA+Jb7Oye8oB0+JDDl+ujG
ouA=
=KQb3
-----END PGP MESSAGE-----
