-----BEGIN PGP MESSAGE-----

hQIMA1YGz9qBHZ0tAQ/+O5KnDG83a65/5HqXRw29iLFA0zU2eUQRx8uJeTCqS360
K/oRpOaD9kM1PbHhoSi+yt+AMZaFuXMFrl9iIMGgZmCu6x3yDXcG2O0dT0DvXI1I
Np6wpXlo23YMh+I5w5F2fMHk/0gCqkoErjQpO7sAbsscS+8NSwfUPVVfGx90l0Is
2Cjp+RA5m5kWseNH8zCYAVbK87ShK/biqPIKDHZuZZMBrbY+316wTXQX2IolHEu5
ZXcR9bdScdqUqNrEF5keVJchTGkg4kJ6rHdzraKkode7IdfrOUGkM/zb9kRDjRxt
NcndvTjwt9aMEuu2yCkloGcv/QxjBbNzF2MfZVcyE0miD5xkpTZ5S779/rknWbbg
3zgnzwJIplwA8xACxZJ1UEA1wDjmxufoVmHytie4YAQ2/gReVW0sKZxx+0UwjMgu
+bFaZ0RYdqxLkt0G+Z+qN9npy9n/5m3jMg4QsgpRxmLnbvOmyee/s+YHE87IUMtw
zCzzKeRNQW94DYpHZ62DCLaUY3feoyQr75rlgs24F7y5xrtKoFWn57prr0iK/P6H
Xzu6wl+m7K7ozmPq8w4am5+Z5Ps9Dmr75qqpGk14Eqd699EODZd8/9dUko7Qf2nR
feptfCOY/5HsrYh8JSGfifMF6lf4L0neKm/KfTx+Fw0z7WqM7w82FDfK5qOgtwGF
AgwDS9w+evuebRkBEAC2s1jUDRCDUCxOySYxjXhvn3hNROxPTxW3VqcNyln0MZHE
5VUAOvOYss0j7QGcznHNTto9KzpzqSmnzn1aVZ6EImf30dRdPABUaP5ni06+QkMu
F17AFyVf5CJFJkXU2mBjgmd2R74CkZuoS0muKHLpasZY3cdAVyLgHpYyrITyYQv9
vb7x205QB5Bjl2ss3Lm4g5XpMV42vsADhvnfBF8IdU/XCIFvx0tB0bxdFbklxIU6
bt22nj+YAUI0wXtGPI145HWj5LVBkbuPgCrC3m4SvjoA21ORfqw4+X5UxFCz6AjE
/CnNRZTMHxkphAgmkzt1Q9n5dvV6nFmHVJAbZXEzmF2A4p4H9c+elvoOa4zok21Y
I40my7nPwlIsEGMdForzGYrex9vQ+OwXacJ34jU8aqvjAyoUzlWqi5C25SYnOZ1X
lNfr/wduf9mf2ZGGZ4wQUTORF8e5AXlY3f4Qo0Gj7xwxytawzfB9ZfexaYv/ZYex
PgRNxK1KDoN8AQajqeqpxx8OLlGYhdTLDOdMp+kIjVuk0aJm0Yg3/rVu7vjFGRNz
L4RzTfOtsflS7E6vhdWeyi92oCWnmoa/GhFl2HDMPYEhjQfledIjs3UjLhutA6cy
pIZHMu/zTW0fYgvk0IIT8nU3SSF7xoOolNJ3h7RjJckca/hBjwAwixmc6y7OF4UC
DANYxDMdkigCwQEP/3DeK3S/ZK0Lpou/o1E/2yyhNyqQp2v9qLtQACWOtcrwY1Zw
LE6TGvgt9rIOw/eiASol+G6z0kilY3qk5BegqYH/hTppqca8mIPqV48LUBv6zWXX
YJeUBdsVPjTAQAdg1FtosnRjRk2E2DfvGz9fMGjeaXRukjCBJePqg67aD/a33zZk
dNxvxrOvjQfWavynjuXoralxWVeOiFk6UK8mekkjsf1zIgCiw0gazZSw16Lomk2v
JDukT36G8RlbQI344QNrkN8F4DFbq8QAse5FXBFOb4H9oW3vEbtdmnqw011FtsUw
AOMs3LoOslWqdoNUSFgg3QNobUoylg3a0Gw/Mm/DQHKhDYPW8qw4RSErxMkJjH3b
ahT3rx3nJHHBCGXSoRQfERROq728IVOqPqX8mSX1fXx6GQUP1AE8sGNS/2cll5RT
WHsZHVVP0OQLoyrQmy1N2wMWdKRgkfeYMyihNlKLHQ05rAY7gprQl1w5TcCKF7ZB
ozqyPEWVpa/4KDC2GY1W28men/TflMl834ZFLAYayW4ilyWfiSP+wS2MfIxje8EY
mC9ndshFhjJeJ0R+D+1P8g+b0I+rTe4E9tutk1Caz8dSBGm2BnJuEky99Fo9AZ5C
15e/TwGzv22R1akVHLyL1yMgV6nxl3tga2Q/z56Yu/NfQPIEQxbYJRUJg9S61MEy
AQkCEKV8QP6wN4x1ITCZsNcfY1pJmoVa3dcKmGbytKAz3u0al8tegaUb1N7wotSA
AD9c8iWOci9FuhIxHRhlJCffWWNah9A6I1UXk5kBPSb5lXimlxNDNFsYgQSKP4Bu
Ny6ATae6ySivYzHC/GUXh8mio00SZ2txA3MNMu8vFj0zw9+p3saguoa/91TrWLy0
Pf38/twwwZL1h2T+FZxacK/cqRaKpnNJsNWAoFtPrQfZTVh82iPPoE+cNIKiWeoz
4vQDd3LLYab2lZPXyqbmDdsNLwt2rQifxfE76BbH01aN06k/5GSbZbQWBCbeWkpf
6TXExJTnY0IO/tX5wt7nWjdISSmskYdBJ4PU9HMKguDzLs4i+kShl76A9bCn7YwI
g4mF2EhrL2jKB1dgDmcTkv+LfdkB2YDudqOI7JIgCWMdxjwcwPMh10umuph93Xhp
byZR69mLk1T9ty1yvaU148UmUOZYzoHDsJiG7wYBE7WgAUKRmaSMto3TZjRVUx3j
Xr7QWegm+rIy1mL6vQrHqKdxKJ04E6jQAQtd96E0MQKoT2kf97LFfPjXJNO9S30i
hqAIuS/dZOwUWYLDlJGvvGYEZvgScUTUDd+sfID7O1qnvRs94m2XxSMa+zSb2Vyx
uyxVhs/J+oeVx1crKfO3axkw
=GC1I
-----END PGP MESSAGE-----
